packages/foundations/assets/icons/functional/images/transportation/car_28_inverted.svg

<svg width="28" height="28" viewBox="0 0 28 28" fill="none" xmlns="http://www.w3.org/2000/svg">
<g clip-path="url(#clip0_2214_6698)">
<path fill-rule="evenodd" clip-rule="evenodd" d="M19.6943 4.96259C20.7808 5.04723 21.7451 5.6722 22.0714 6.70223L23.3048 11.8105L25.3969 11.8113C25.8454 11.8113 26.1905 12.1229 26.2375 12.5548L26.243 13.5315C26.243 13.98 25.9299 14.3757 25.4984 14.43L24.3549 14.4351C24.3733 14.7425 24.3648 15.0925 24.3352 15.5179C24.3154 15.8014 24.2033 16.9896 23.9989 19.0824C23.9619 19.465 23.8684 19.8087 23.7199 20.1058L23.7193 22.0647C23.7193 22.4547 23.7199 23.1864 22.5976 23.1864H21.2535C20.1168 23.1864 20.1318 22.4547 20.1318 22.0647L20.1312 21.3882C18.0586 21.5013 16.0149 21.558 14 21.5584C11.9852 21.5588 9.9704 21.503 7.95558 21.3909L7.95589 22.0647C7.95589 22.4547 7.95558 23.1864 6.83419 23.1864H5.49009C4.36839 23.1864 4.36839 22.4547 4.36839 22.0647L4.36863 20.3C4.19329 20.0097 4.07372 19.6658 4.01465 19.279C3.7763 16.8083 3.65712 15.5729 3.65712 15.5729C3.62425 15.1281 3.61339 14.7584 3.63118 14.4345L2.6032 14.4363C2.11933 14.4363 1.75708 14.0145 1.75708 13.5315V12.6565C1.75708 12.1727 2.11933 11.8113 2.6032 11.8113L4.70845 11.8105L6.00774 6.95244C6.27266 5.89276 7.01026 5.13845 8.27196 5.0683C10.173 4.96259 12.1171 4.81455 14.0397 4.81367C15.9246 4.81295 17.7798 4.86804 19.6943 4.96259ZM11.0576 15.7552C10.7112 15.797 10.4217 16.0422 10.3236 16.377L10.0703 17.8941C10.0502 18.298 10.3376 18.7143 10.8005 18.7995C11.2634 18.8846 11.6728 18.5685 11.7848 18.1799L11.9042 17.4989H16.1086L16.2288 18.1799C16.3502 18.6008 16.7705 18.8732 17.2132 18.7995C17.6558 18.7257 17.9651 18.3317 17.9434 17.8941L17.6901 16.377C17.5919 16.0422 17.3025 15.797 16.9561 15.7552H11.0576ZM5.67926 15.0927C5.24122 15.0997 4.86831 15.4341 4.82366 15.8806C4.77901 16.3271 5.07832 16.7287 5.5063 16.8223L7.89687 17.0613C8.33492 17.0543 8.70783 16.7199 8.75248 16.2734C8.79713 15.8269 8.49782 15.4253 8.06983 15.3317L5.67926 15.0927ZM19.9438 15.3317C19.5158 15.4253 19.2165 15.8269 19.2612 16.2734C19.3058 16.7199 19.6787 17.0543 20.1168 17.0613L22.5073 16.8223C22.9353 16.7287 23.2346 16.3271 23.19 15.8806C23.1453 15.4341 22.7724 15.0997 22.3344 15.0927L19.9438 15.3317ZM8.42704 6.55101C8.00504 6.57224 7.62509 6.81877 7.48172 7.21229L6.24233 11.8105C8.81055 11.7021 11.3895 11.648 13.9791 11.648C16.5657 11.648 19.163 11.7021 21.771 11.8105L20.6705 7.21229C20.5672 6.7988 20.2315 6.47214 19.7997 6.45559C17.856 6.38109 15.9385 6.3025 14.0079 6.30156C12.1476 6.30067 10.3236 6.45559 8.42704 6.55101Z" fill="#1A1C1F"/>
</g>
<defs>
<clipPath id="clip0_2214_6698">
<rect width="28" height="28" fill="white"/>
</clipPath>
</defs>
</svg>

<svg xmlns="http://www.w3.org/2000/svg" width="28" height="28" fill="none"><g clip-path="url(#a)"><path fill="#1A1C1F" fill-rule="evenodd" d="M19.694 4.963c1.087.084 2.051.71 2.377 1.74l1.234 5.107 2.092.001c.448 0 .794.312.84.744l.006.976c0 .449-.313.845-.745.899l-1.143.005c.018.307.01.657-.02 1.083A264 264 0 0 1 24 19.082c-.037.383-.13.727-.28 1.024v1.959c0 .39 0 1.121-1.121 1.121h-1.344c-1.137 0-1.122-.731-1.122-1.121v-.677q-3.11.17-6.132.17-3.023 0-6.044-.167v.674c0 .39 0 1.121-1.122 1.121H5.49c-1.122 0-1.122-.731-1.122-1.121V20.3a2.8 2.8 0 0 1-.353-1.021l-.358-3.706a9 9 0 0 1-.026-1.139l-1.028.002c-.484 0-.846-.421-.846-.905v-.875c0-.483.362-.845.846-.845h2.105l1.3-4.859c.265-1.06 1.002-1.814 2.264-1.884 1.901-.105 3.845-.253 5.768-.254 1.885-.001 3.74.054 5.654.149m-8.636 10.792a.88.88 0 0 0-.734.622l-.254 1.517a.89.89 0 0 0 .73.906c.463.085.873-.232.985-.62l.12-.681h4.204l.12.68a.875.875 0 0 0 1.714-.285l-.253-1.517a.88.88 0 0 0-.734-.622zm-5.379-.662a.875.875 0 0 0-.173 1.73l2.39.238a.875.875 0 0 0 .174-1.73zm14.265.239a.875.875 0 0 0 .173 1.73l2.39-.24a.875.875 0 0 0-.173-1.73zM8.427 6.55c-.422.021-.802.268-.945.661l-1.24 4.599q3.853-.163 7.737-.163 3.88 0 7.792.162l-1.1-4.598c-.104-.413-.44-.74-.871-.756-1.944-.075-3.862-.154-5.792-.154-1.86-.001-3.684.154-5.581.249" clip-rule="evenodd"/></g><defs><clipPath id="a"><path fill="#fff" d="M0 0h28v28H0z"/></clipPath></defs></svg>
